X: 35690
T: Saint Anne's
R: reel
M: 4/4
K: Dmajor
de|:f2 fg fedB|A2 [FA]A [AD]A[AF]A|B2 [GB]B [DB]B[GB]B|A2 [FA]A [DA]A[FA]A|
f2 fg fedB|A2 [FA]A [DA]A[FA]A|BGed cABc|eddc d2 de:|
|:f2 fg fedc|Bggf g2 gf|edcB Acea|ba^gb a2 de|
f2 fg fedc|Bggf g2 gf|edcB Aceg|fddc d2 de:|

